X:1
T:Title
%%score ( 1 2 )
L:1/8
M:4/4
K:Bb
V:1 bass nm="Bassoon" snm="Bsn."
V:2 bass 
V:1
 B,,B,,B,,B,, B,,B,,B,,B,, | B,,B,,B,,B,, B,,B,,B,,B,, | A,,A,,A,,A,, A,A,A,A, | %3
 B,B,B,B, D,D,D,D, | E,E, E,2 F,F,F,F, |!f! B,,2 z D B,F,D,B,, | A,,2 z C A,F,C,A,, | %7
 B,,2 z D B,F,D,B,, | E,E,E,E, E,E,E,=E, | F,2 z2 z4 | z4 z2!p! D,2 | (C,2 A,,2 B,,2 D,2) | %12
 (C,2 A,,2 B,,2 D,2) | E,2 z2!f! (D,4 |!p! E,2 z2!f! (D,4 |!p! E,2) z2 z4 | z2 E,2 F,2 F,,2 | %17
!f! B,, D,E, D,B,,/C,/ D, G, z | (F,G,F,E, D,E,D,)C, | B,,(B,A,G, F,G,F,=E,) | F,2 z2 z4 | %21
!f! z .F,.F,.F, .F,.F,.F,.F, | B,,2 z2 z4 |!p! B,4 F,4 | B,,2 z2 z4 |!p! (B,4 F,4-) | F,8 | F,8 | %28
 F,8 |!f! G,G,G,G, E,E,E,E, | F,F,F,F, F,F,F,F, | B,,C,/D,/ E,/F,/G,/A,/ B,/C/D/A,/ B,/C/D/A,/ | %32
 B,/B,,/C,/D,/ E,/F,/G,/A,/ B,/C/D/A,/ B,/C/D/A,/ | B,2 B,2 B,,2 z2 | B,2 B,4 (D>B,) | %35
 F,2 F,4 (D,>B,,) | F,,2 E4 E2 | TE2 D2 z2{G} FE/D/ |{D} C2 B,4 A,2 | %39
 B,/F,/G,/A,/ B,/C/D/E/ F/(F/=E/F/) F_E/D/ | (D/C/E/C/) B,4 A,2 | B,2 z2 z4 | %42
 F,2 F,2- F,/F,,/A,,/C,/ F,/A,,/C,/F,/ | A,/C,/F,/A,/ C/F,/A,/C/ (F=EDC) | (C=B,) B,6 | %45
 _B,2 C,,4 G2 | G =E2 C2 (G,A,B,) | TB,2 A,2 z C TC3/2B,/4C/4 | %48
 D/B,/B,/B,/ TB,2 F,/B,/B,/B,/ D,/B,/B,/B,/ | B,,/B,/B,/B,/ TB,2 D/B,/B,/B,/ F/D/D/D/ | %50
 =E/C/C/C/ TC2 G,/C/C/C/ =E,/C/C/C/ | C,/C/C/C/ TC2 =E/C/C/C/ G/E/E/E/ | F2 (B,4 ^C2) | %53
 (D3 =E/F/ ED=C=B,) | (C3{DCB,C} D) (F,2 =E,2) | F,2 z2 z4 | C2{B,} A,G,/F,/ z4 | %57
 B,2{A,} G,F,/=E,/ F,A, C2 | B,2{A,} G,F,/=E,/ F,A,C_E | DB,,A,,C B,G,,F,,A, | %60
 G,=E,,D,,F, =E,2 D2 | C2 F2{=E} D2 B,2 | A,/B,/C/B,/ C/A,/G,/F,/ z4 | %63
 F,G,/A,/ B,/C/D/=E/ F/C/A,/F,/ T_E,3/2D,/4E,/4 | %64
 D,/=E,/F,/E,/ F,/^F,/G,/F,/ G,/A,/B,/A,/ B,/^C/D/C/ | %65
 D/=E/=F/E/ F/E/F/E/ F/E/D/=C/ B,/A,/G,/=F,/ | C,8 | TG8 | [F,F]2 z2 z4 | =E,,2 z G, =E,B,,G,,E,, | %70
 F,,2 z2 z4 |!p! F,4 C,4 | F,,2 z2 z4 |!p! F,4 C,4 | C,8- | C,8 | C,8 | F,2 F2- F_E(DC) | %78
 C=B, B,4 B,2 | C/G,/_A,/G,/ (C/D/E/).C/ D/G,/A,/G,/ (D/E/F/).D/ | E2 z2 z4 | E,2 E2- E(DC_B,-) | %82
 B,=A, A,4 A,2 | B,/F,/G,/F,/ (B,/C/D/).B,/ C/F,/G,/F,/ (C/D/E/).C/ | D2 z2 z2 TD3/2C/4D/4 | %85
 E2 C2{B,} A,2 TG,2 | ^F,2 z2 z/ .D,/.F,/.A,/ (D/C/)(A,/C/) | B,2 z2 z/ .G,/.B,/.D/ (G/(=F/)D/F/) | %88
 E2 z2 z/ .C,/.E,/.G,/ (C/B,/)G,/B,/ | A,2 z2 z/ .F,/.A,/.C/ F/E/C/E/ | %90
 D2 z2 z/ .B,,/.D,/.F,/ (B,/_A,/)(F,/A,/) | G, G2 E2 C2 B, | F8- | F8 | .F3 =E/F/ F,2 z2 | %95
 B,2 B,4 (D>B,) | F,2 F,4 (D,>B,,) | F,,2 E2 z4 | TE2 D2 z2 FE/D/ | C2 B,4 A,2 | %100
 B,/F,/G,/A,/ B,/C/D/E/ F/(F/=E/F/) F_E/D/ | (D/C/E/)C/ (B,4 A,2) | B,2 z2 z4 | %103
 E,2 E,2- E,/E,,/G,,/B,,/ E,/G,,/B,,/E,/ | G,/B,,/E,/G,/ B,/E,/G,/B,/ (EDCB,) | (B,A,) A,6 | %106
 _A,2 B,,,4 F2- | F D2 B,2 (F,G,_A,) | T_A,2 G,2- G,=A,B,=B, | (C/D/E/D/) T_B,3/2A,/4B,/4 z4 | %110
 A,2 z2 z C TC3/2B,/4C/4 | D/B,/B,/B,/ TB,2 F,/B,/B,/B,/ D,/B,/B,/B,/ | %112
 B,,/B,/B,/B,/ TB,2 D/B,/B,/B,/ F/D/D/D/ | E/C/C/C/ TC2 A,/C/C/C/ F,/C/C/C/ | %114
 C,/C/C/C/ TC2 A,/C/C/C/ F,/E/E/E/ | D/B,/B,/B,/ TB,2 F,/B,/B,/B,/ D,/F,/F,/F,/ | B,,2 z2 z4 | %117
 z E,E,E, E,F,/G,/ _A,/B,/C/D/ | E/F/G/_A/ B2 z4 | B,,B,,B,, B,,C,/D,/ E,/F,/G,/=A,/ z | %120
 B,/C/D/E/ F2 z4 | F,, F,,F,, F,,G,,/A,,/ B,,/C,/D,/E,/ z | F,/G,/A,/B,/ C2 z4 | %123
 D/F/=E/F/ _E/D/C/B,/ A,/E/D/E/ D/C/B,/A,/ | B,/F/=E/F/ _E/D/C/B,/ A,/E/D/E/ D/C/B,/A,/ | %125
 B,2 F,4 ^F,2 | G,2 C2 E2 G2 | G,3 (E/C/) (B,2 TA,2) | B,2 z2 z4 | z4 .D,.F, B,2 | %130
 .A,.C E2 DC/B,/ A,B, | .A,.C E2{E} DC/B,/ A,B, | GE,D,F EC,B,,D | CA,,G,,B, A,F,,E,,G, | %134
 F,/G,/A,/B,/ C/D/E/F/ E3 C | B,/A,/B,/C/ B,/A,/B,/C/ z4 | %136
 B,/B,,/D,/F,/ B,/F,/D/B,/ F z T_A,3/2G,/4A,/4 | %137
 G,/=A,/B,/A,/ B,/=B,/C/B,/[K:tenor] C/D/=E/D/ E/^F/G/F/ | %138
 G/=F/E/D/ E/D/C/=B,/ C/D/E/D/ C/_B,/A,/G,/ | F,G,/A,/ B,/C/D/E/ F/G/=E/G/ F/G/E/G/ | %140
 FBFD[K:bass] B,F,D,B,, | F,,8 | TC8 | B,2 z2 z4 |!p! (B,4 F,4) | B,,2 z2 z4 |!p! B,4 F,4- | F,8 | %148
 F,8 | F,8 | z2 B,2 z4 | B,4 (TC3 B, | B,2) z2 z4 | A,,2 C A,F,C,A,, z | %154
 B,,B,,D,E, D,B,,/C,/ D,G, | (F,G,F,E, D,E,D,C,) | B,,(B,A,G, F,G,F,=E,) | F,2 z2 z4 | %158
!f! z .F, .F,.F, .F,.F,.F,.F, | B,,C,/D,/ E,/F,/G,/A,/ B,/C/D/A,/ B,/C/D/A,/ | %160
 B,/B,,/C,/D,/ E,/F,/G,/A,/ B,/C/D/A,/ B,/C/D/A,/ | B,2 B,2 B,,2 z2 | %162
[K:F][M:2/2]!p! F, z F, z G, z C, z | F, z A,, z B,, z C, z | F,4- F, z F,, z | %165
 F, z F,, z D, z D, z | C, z C, z C, z C, z | C,2 z2 z4 | (C3 F) (FE) z B, | %169
{C} B,A, z A,{A,} G, (F,2 E,) | F,/D/ D2 (C/B,/) A,(G/4F/4E/4F/4) (E/4D/4^C/4D/4=C/4B,/4A,/4B,/4) | %171
 (C3/2{DCB,C}D/) F,E, F,2 z2 | F,,2 (F>D){C} (=B,3/2C/4D/4)C z | G, F2 E (TED) z2 | %174
 (D/4E/4D/4C/4=B,/).B,/ .B,/(B,/C/D/) (E/4F/4E/4D/4C/).C/ .C/(E/D/C/) | G8 | A,2 F2 G,2 E2 | %177
 F,2 D2 (E,/G,/G/).G/ (G/F/E/D/) | .C/.C/.C/.C/ (C/=B,/A,/)G,/ G,B,/C/ (G/F/) z | %179
 ^D/E/ C/=B,/ G2 _B,,2 z2 | A,,2 A2 G, G2 (F/4E/4=D/4)C/4 | TD4 C2 z2 | %182
 z _E,2 (C/A,/) (G, ^F,2) A | A/^F_EDC/ (C/=B,/) B,2 _B,- | B, C,,2 G- G/(=E/C/B,/) A,/C/=F/.A,/ | %185
 (C>A,).G, z z4 | z8 | (C3 F){G} (FE) z B, | (B,A,) z A,{A,} G, (F,2 E,) | F,2 z2 z4 | %190
 z2 z (F/C/) (C/B,/) B,2 A,/G,/ | %191
 F,/D/ D2 (C/B,/) A,(G/4F/4E/4F/4) (E/4D/4^C/4D/4 =C/4B,/4A,/4B,/4) | %192
 (C7/4{DCB,C}D/) (F,z/4E,) F,2 z/ z | F,,2 (F>D) (=B,3/2C/4D/4)C z | %194
 C,,2 (D>_B,) (^G,3/2A,/4=B,/4)A, z | _B,,,2 (_B,>=G,) (E,3/2F,/4G,/4)F, z | C, (B,2 A,) TA,G, z2 | %197
 (G,/4A,/4G,/4F,/4E,/).E,/ .E,/(E,/F,/G,/) (A,/4B,/4A,/4G,/4F,/).F,/ .F,/(A,/G,/F,/) | C8 | %199
 B,,2 D2 C2 A,,2 | C,2 (TB,3/2A,/4B,/4) A,/FCA,F,/ | %201
 C,2 (TB,3/2A,/4B,/4) A,/C,/C/.C/ (C/B,/A,/G,/) | %202
 .F,/.F,/.F,/.F,/ (F,/E,/D,/C,/) C,E,/F,/ z (C/B,/) | z (^G,/A,/) F,/E,/ C2 A,,2 z | %204
 B,,2 D2 C,2 (T=G,3/2F,/4G,/4) | (3(F,/A,/C/) C2 ^C .D(DEF) | =C2- C/D/4C/4B,/4A,/4G,/4F,/4 z4 | %207
 F,2 z2 z4 | F,4 .G,3 F, | F,2 z2 z4 |:[K:Bb][M:3/4]!f! B,2 D2 B,2 | C2 G,2 A,2 | B,2 G,2 E,2 | %213
 F,2 F,2 E,2 | D,2 D2 B,2 | C2 (G,2 A,2) | B,2 F,2 F,,2 | B,,2 F,2 B,2 :| F,2 F,2 F,2 | %219
 F,2 F,2 F,2 | B,2 B,2 B,2 | B,2 B,2 B,2 | B,2 D2 B,2 | C2 (G,2 A,2) | B,2 G,2 E,2 | F,2 F,2 E,2 | %226
 D,2 D2 B,2 | C2 G,2 A,2 | B,2 F,2 F,,2 | B,,2 D,2 F,2 | (3B,F,D, (3B,,D,F, (3B,DF | %231
 (3ECB, (3A,CG, (3F,CE, | (3D,B,A, (3G,ED (3CDB, | (3A,B,C (3B,A,G, F,2 | %234
 (3B,F,D, (3B,,D,F, (3B,DF | (3ECB, (3A,CG, (3F,CE, | D,B, F, z3 | B,2 z2 z2 | %238
 B,/F,/G,/A,/ B,/C/D/=E/ FF | FC z4 | B,/C/B,/A,/ G,/A,/G,/F,/ =E,B, |{B,} TA,2 G,2 z2 | B,6- | %243
 B,6 | B,6 | (B,6 | C)D/=E/ F/E/D/C/ B,/A,/G,/F,/ | G,/^F,/G,/A,/ B,/A,/B,/C/ Dz/D/ | %248
 (C>D) =F,2 =E,2 | CD/=E/ F/E/D/C/ B,/A,/G,/F,/ | G,/^F,/G,/A,/ B,/A,/B,/C/ D z | %251
 G,/^F,/G,/A,/ B,/A,/B,/C/ Dz/D/ | (C>D) (=F,2 =E,2) | (=E,2 F,2)) z2 | (3F,FF (3FGF (3_EDC | %255
 (3=B,G,G, (3G,_A,G, (3F,E,D, | (3C,EE (3EFE (3DC_B, | (3=A,F,F, (3F,G,F, (3E,D,C, | %258
 (3B,,D,F, (3B,DF (3GEC | (B,4 A,2) |!f! B,2 D2 B,2 | C2 G,2 A,2 | B,2 G,2 E,2 | F,2 F,2 E,2 | %264
 D,2 D2 B,2 | C2 G,2 A,2 | B,2 F,2 F,,2 | B,,2 F,2 B,2 | D2{C} B,2{A,} G,2 | ^F,/A,/C/E/ z4 | %270
 D2 B,2{A,} G,2 | ^F,/A,/C/E/ z4 | DG(G^F) z E | (ED)(DC) z B, | (B,A,)(A,G,)(G,^F,) | (^F,4 G,2) | %276
 B,6- | B,(A,B,A,B,=B,-) | (B,6 | C)(=B,CB,C^C) | D6- | D(^CDCDC) | D2 B,2{A,} G,2 | %283
 ^F,/A,/C/E/ E4 | D2 B,2 G,2 | ^F,/A,/C/E/ E4 | DG(G^F) .E z | (ED) DC B, z | (B,A,)(A,G,)(G,^F,) | %289
 (^F,4 G,2) |!f! B,2 D2 B,2 | C2 (G,2 A,2) | B,2 G,2 E,2 | F,2 F,2 E,2 | D,2 D2 B,2 | C2 G,2 A,2 | %296
 B,2 F,2 F,,2 | B,,2 F,2 B,2 | B,/A,/B,/C/ D/C/D/E/ F2 | E/F/E/D/ C/D/C/B,/ A,2 | %300
 B,/C/B,/A,/ G,C/D/ E/D/C/B,/ | A,/B,/C/B,/ A,/B,/A,/G,/ F,2 | B,/A,/B,/C/ D/C/D/E/ FF | %303
 E/F/E/D/ C/D/C/B,/ A,A, | (B,>C) TB,4 | B,2 z2 z2 | (3B,,B,B, (3B,CB, (3T_A,G,A, | %307
 G,B, G, E, B,, z | E,,2 z4 | (3C,CC (3CDC (3B,=A,B, | (3A,CA, (3F,C,A,, F,,2 | (C2 _D2 B,2) | %312
 (3(A,CF) F4 | (C2 _D2 B,2) | (3(A,CF) F4 | (C2 _D2 B,2) | TF3 =E/F3/4F,3/2 z/4 | B,4 (CD) | %318
 (FE) E4 | DF B,D G,C | B,(A,G,F,G,A,) | B,4 (CD) | (FE) E4 | (D3/2E/4F/4) B,2 A,2 | B,2 z2 z2 | %325
 B,4 (DB,) | DE E4 | D4 .EC | (=EF) F4 | B,,B,B,,DB,,F | EC/D/ ECA,F, | B,,DG,,B,E,,C | %332
 F,,C/B,/ A,CF,A, | B,,B,B,,DB,,F | EC/D/ ECA,F, | (D3/2E/4F/4) (B,2 A,2) | F6- | F6 | F6 | F6 | %340
 F/E/D/E/ F/E/D/C/ B,/A,/G,/F,/ | G,A,/=B,/ C/B,/C/D/ E z | F,2 z4 | %343
 F/E/D/E/ F/E/D/C/ _B,/A,/G,/F,/ | G,A,/=B,/ C/B,/C/D/ E z | G,A,/=B,/ C/B,/C/D/ E z | F,6 | %347
 B,2 D2 B,2 | C2 G,2 A,2 | B,2 G,2 E,2 | F,2 F,2 E,2 | D,2 D2 B,2 | C2 (G,2 A,2) | B,2 F,2 F,,2 | %354
 D,D,D,D,D,D, | E,E,F,F,E,E, | D,D,D,D,D,D, | E,E,F,F,F,,F,, | B,,B,,D,B,,D,F, | B,2 B,,2 z2 || %360
V:2
 x8 | x8 | x8 | x8 | x8 | x8 | x8 | x8 | x8 | x8 | x8 | x8 | x8 | x8 | x8 | x8 | x8 | x8 | x8 | %19
 x8 | x8 | x8 | x8 | x8 | x8 | x8 | x8 | x8 | x8 | x8 | x8 | x8 | x8 | x8 | x8 | x8 | x8 | x8 | %38
 x8 | x8 | x8 | x8 | x8 | x8 | x8 | x8 | x8 | x8 | x8 | x8 | x8 | x8 | x8 | x8 | x8 | x8 | x8 | %57
 x8 | x8 | x8 | x8 | x8 | x8 | x8 | x8 | x8 | x8 | G,8 | x8 | x8 | x8 | x8 | x8 | x8 | x8 | x8 | %76
 x8 | x8 | x8 | x8 | x8 | x8 | x8 | x8 | x8 | x8 | x8 | x8 | x8 | x8 | x8 | x8 | x8 | x8 | x8 | %95
 x8 | x8 | x8 | x8 | x8 | x8 | x8 | x8 | x8 | x8 | x8 | x8 | x8 | x8 | x8 | x8 | x8 | x8 | x8 | %114
 x8 | x8 | x8 | x8 | x8 | x8 | x8 | x8 | x8 | x8 | x8 | x8 | x8 | x8 | x8 | x8 | x8 | x8 | x8 | %133
 x8 | x8 | x8 | x8 | x4[K:tenor] x4 | x8 | x8 | x4[K:bass] x4 | x8 | x8 | x8 | x8 | x8 | x8 | x8 | %148
 x8 | x8 | x8 | x8 | x8 | x8 | x8 | x8 | x8 | x8 | x8 | x8 | x8 | x8 |[K:F][M:2/2] x8 | x8 | x8 | %165
 x8 | x8 | x8 | x8 | x8 | x8 | x8 | x8 | x8 | x8 | x8 | x8 | x8 | x8 | x8 | x8 | x8 | x8 | x8 | %184
 x8 | x8 | x8 | x8 | x8 | x8 | x8 | x8 | x8 | x8 | x8 | x8 | x8 | x8 | x8 | x8 | x8 | x8 | x8 | %203
 x8 | x8 | x8 | x8 | x8 | x8 | x8 |:[K:Bb][M:3/4] x6 | x6 | x6 | x6 | x6 | x6 | x6 | x6 :| x6 | %219
 x6 | x6 | x6 | x6 | x6 | x6 | x6 | x6 | x6 | x6 | x6 | x6 | x6 | x6 | x6 | x6 | x6 | x6 | x6 | %238
 x6 | x6 | x6 | x6 | x6 | x6 | x6 | x6 | x6 | x6 | x6 | x6 | x6 | x6 | x6 | x6 | x6 | x6 | x6 | %257
 x6 | x6 | x6 | x6 | x6 | x6 | x6 | x6 | x6 | x6 | x6 | x6 | x6 | x6 | x6 | x6 | x6 | x6 | x6 | %276
 x6 | x6 | x6 | x6 | x6 | x6 | x6 | x6 | x6 | x6 | x6 | x6 | x6 | x6 | x6 | x6 | x6 | x6 | x6 | %295
 x6 | x6 | x6 | x6 | x6 | x6 | x6 | x6 | x6 | x6 | x6 | x6 | x6 | x6 | x6 | x6 | x6 | x6 | x6 | %314
 x6 | x6 | x6 | x6 | x6 | x6 | x6 | x6 | x6 | x6 | x6 | x6 | x6 | x6 | x6 | x6 | x6 | x6 | x6 | %333
 x6 | x6 | x6 | x6 | x6 | x6 | x6 | x6 | x6 | x6 | x6 | x6 | x6 | x6 | x6 | x6 | x6 | x6 | x6 | %352
 x6 | x6 | x6 | x6 | x6 | x6 | x6 | x6 || %360

